!!!COM:	Martini, Johannes
!!!CDT:	~1440///-~1497//
!!!OPR:	Missa La Martinella
!!!ONM:	1
!!!OTL:	Kyrie
!!!AGN:	Mass; Kyrie
!!!SCT:	Mar1009a
!!!SCA:	Mar1009a
!!!voices:	4
!!!voices-OPR:	4
**kern	**kern	**kern	**kern
*staff4	*staff3	*staff2	*staff1
*Ivox	*Ivox	*Ivox	*Ivox
*I"Bassus	*I"Tenor	*I"Contratenor	*I"Superius
*I'B	*I'T	*I'Ct	*I'S
*>[A,B,C]	*>[A,B,C]	*>[A,B,C]	*>[A,B,C]
*>A	*>A	*>A	*>A
*clefF4	*clefGv2	*clefGv2	*clefG2
*k[b-]	*k[b-]	*k[b-]	*k[b-]
*M2/1	*M2/1	*M2/1	*M2/1
*met(C)	*met(C)	*met(C)	*met(C)
!!section: Kyrie I
!!!OMD: Kyrie I
=1-	=1-	=1-	=1-
0r	0r	0r	0g
=2	=2	=2	=2
0r	0r	0r	1f
.	.	.	1g
=3	=3	=3	=3
0G	0r	0r	0b-
=4	=4	=4	=4
1F	0r	0r	1a
1G	.	.	[1g
=5	=5	=5	=5
0B-	0r	0G	2g/]
.	.	.	4f/
.	.	.	4e/
.	.	.	1d
=6	=6	=6	=6
1A	0r	1F	2r
.	.	.	2d/
[1G	.	1G	2e/
.	.	.	[2g/
=7	=7	=7	=7
2G\]	0r	0B-	4g/]
.	.	.	4a/
4F\	.	.	1b-
4E\	.	.	.
2D\	.	.	.
2G\	.	.	4a/
.	.	.	4g/
=8	=8	=8	=8
1D	0r	1A	1f
[1GG	.	2.G/	2r
.	.	.	[2g/
.	.	8F/L	.
.	.	8E/J	.
=9	=9	=9	=9
0GG]	[0G	2D/	4g/]
.	.	.	4a/
.	.	2r	2.b-\
.	.	2.B-\	.
.	.	.	4cc\
.	.	.	[2dd\
.	.	4c\	.
=10	=10	=10	=10
2G\	0G]	2.d\	4dd\]
.	.	.	4cc\
2A\	.	.	4b-\
.	.	4c\	4a/
1B-	.	4B-\	2g/
.	.	4A/	.
.	.	2G/	2b-\
=11	=11	=11	=11
1c	0F	2A/	2a/
.	.	2F/	2.cc\
2A\	.	1f	.
.	.	.	4b-\
2c\	.	.	2a/
=12	=12	=12	=12
2B-\	0G	[0d	2g/
2G\	.	.	2.b-\
2.B-\	.	.	.
.	.	.	4a/
.	.	.	4g/
4A\	.	.	4f/
=13	=13	=13	=13
1.G	[0B-	0d]	2g/
.	.	.	4f/
.	.	.	4e/
.	.	.	3%2dV
2GG/	.	.	.
.	.	.	3g/Z
=14	=14	=14	=14
1GG	0B-]	2.G/	3.g/V
.	.	.	6a/
.	.	.	3b-\Z
.	.	4A/	.
2r	.	2.B-\	3.g/V
2G\	.	.	6a/
.	.	.	3b-\Z
.	.	4G/	.
=15	=15	=15	=15
2F\	0A	4A/	3.cc\V
.	.	4B-\	.
2E\	.	2c\	6b-\
.	.	.	6a/
.	.	.	6g/Z
1D	.	1d	3.f#i/V
.	.	.	6e/
.	.	.	3f#i/Z
=16	=16	=16	=16
1E-	[0G	1B-	1.g
[1C	.	2c\	.
.	.	[2c\	[2e/
=17	=17	=17	=17
1C]	1G]	4c\]	1e]
.	.	4G/	.
.	.	2c\	.
2r	1F	2A/	2f/
[2BB-/	.	[2B-\	[2d/
=18	=18	=18	=18
4BB-/]	0D	4B-\]	4d/]
4C/	.	4A/	4c/
2D\	.	2F/	2A/
2GG/	.	2G/	2B-/
[2F\	.	[2A/	2A/
=19	=19	=19	=19
4F\]	0F	4A/]	2r
4G\	.	4B-\	.
2A\	.	2c\	2.a/
2D\	.	2d\	.
.	.	.	8g/L
.	.	.	8f/J
2C/	.	[2d\	2a/
=20	=20	=20	=20
2r	1G	4d\]	2b-\
.	.	4c\	.
1E-	.	4B-\	1g
.	.	4A/	.
.	[1B-	2G/	.
2D\	.	4r	2f/
.	.	4D/	.
=21	=21	=21	=21
2BB-/	1B-]	2F/	2d/
2GG/	.	2G/	4e/
.	.	.	2d/
1AA	1A	1E	.
.	.	.	8c#i/L
.	.	.	8Bni/J
.	.	.	2c#i/
=22	=22	=22	=22
2BB-/	0F	2.D/	1.d
2.D\	.	.	.
.	.	4E/	.
.	.	4F/	.
4E\	.	4G/	.
[2F\	.	[2A/	2c/
=23	=23	=23	=23
4F\]	0A	4A/]	2.f/
4E\	.	4G/	.
2D\	.	1F	.
.	.	.	8e/L
.	.	.	8d/J
1C	.	.	1e
.	.	2E/	.
=24	=24	=24	=24
2BB-/	1B-	2F/	2d/
2GG/	.	2G/	2g/
2.BB-/	[1d	2D/	2f/
.	.	2F/	[2b-\
4AA/	.	.	.
=25	=25	=25	=25
2GG/	1d]	2G/	2b-\]
2FF/	.	2A/	2a/
1GG	1B-	2D/	[1g
.	.	[2d\	.
=26	=26	=26	=26
0D	0A	4d\]	2g/]
.	.	4c\	.
.	.	2d\	2f#i/
.	.	2A/	2.f#i/
.	.	[2d\	.
.	.	.	4e/
=27	=27	=27	=27
2GG/	[0Gl	2d\]	[0gl
2.C/	.	2e-i\	.
.	.	2.c\	.
4BB-/	.	.	.
2C/	.	.	.
.	.	4B-\	.
=28	=28	=28	=28
0GGl	0G]	0dl	0g]
!!LO:LB:i:g=z
=29||	=29||	=29||	=29||
*>B	*>B	*>B	*>B
*clefF4	*clefGv2	*clefGv2	*clefG2
*k[b-]	*k[b-]	*k[b-]	*k[b-]
*M2/1	*M2/1	*M2/1	*M2/1
*met(C)	*met(C)	*met(C)	*met(C)
!!section: Christe
!!!OMD: Christe
0r	0r	1G	0r
.	.	[1G	.
=30	=30	=30	=30
0r	0r	2G/]	1d
.	.	2A/	.
.	.	2B-\	[1d
.	.	2G/	.
=31	=31	=31	=31
0r	0r	2B-\	2d/]
.	.	2c\	2e/
.	.	2.d\	2f/
.	.	.	2d/
.	.	4c\	.
=32	=32	=32	=32
0r	0r	2d\	2f/
.	.	2B-\	2g/
.	.	2.A/	2.a/
.	.	4B-\	4g/
=33	=33	=33	=33
0r	0r	2c\	2a/
.	.	1d	2f/
.	.	.	1e
.	.	2c#i\	.
=34	=34	=34	=34
0r	0r	1d	2r
.	.	.	2a/
.	.	1G	2b-\
.	.	.	[2a/
=35	=35	=35	=35
0r	0r	2F/	4a/]
.	.	.	4g/
.	.	2G/	1g
.	.	1A	.
.	.	.	2f#i/
=36	=36	=36	=36
0r	0r	1G	1g
.	.	1r	1g
=37	=37	=37	=37
1GG	0r	1G	0r
1D	.	1F	.
=38	=38	=38	=38
2BB-/	0r	1G	0r
1C	.	.	.
.	.	2A/	.
2D\	.	[2B-\	.
=39	=39	=39	=39
2E\	0r	2B-\]	0r
2F\	.	4A/	.
.	.	4G/	.
4E\	.	2.B-\	.
4D\	.	.	.
[2G\	.	.	.
.	.	4c\	.
=40	=40	=40	=40
2G\]	0r	1A	0r
2F#i\	.	.	.
2G\	.	2G/	.
2GG/	.	[2B-\	.
=41	=41	=41	=41
2.BB-/	0r	4B-\]	0r
.	.	4c\	.
.	.	2d\	.
4C/	.	.	.
2D\	.	2B-\	.
[2G\	.	[2e-i\	.
=42	=42	=42	=42
2G\]	0r	4e-\]	0r
.	.	4d\	.
2F\	.	2.d\	.
1E-i	.	.	.
.	.	4B-\	.
.	.	2c\	.
=43	=43	=43	=43
2D\	0r	2r	1d
2.F\	.	2.d\	.
.	.	.	[1f
4E\	.	4c\	.
4D\	.	4B-\	.
4C/	.	4A/	.
=44	=44	=44	=44
2D\	0r	2B-\	2f/]
4C/	.	4A/	2g/
4BB-/	.	4G/	.
2AA/	.	2.F/	1a
2D\	.	.	.
.	.	4E/	.
=45	=45	=45	=45
2BB-/	0r	2D/	1b-
2GG/	.	1G	.
1D	.	.	1a
.	.	2F#i/	.
=46	=46	=46	=46
2GG/	0r	2G/	2g/
2.BB-/	.	2D/	2.dd\
.	.	1F	.
4C/	.	.	4cc\
2D\	.	.	4b-\
.	.	.	4a/
=47	=47	=47	=47
2BB-/	0r	1G	2b-\
2E-i\	.	.	4a/
.	.	.	4g/
2D\	.	1A	2.f/
2F\	.	.	.
.	.	.	4e/
=48	=48	=48	=48
1G	0r	1B-	2d/
.	.	.	1g
1D	.	1A	.
.	.	.	2f#i/
=49	=49	=49	=49
2E\	0r	2G/	2g/
2D\	.	1d	2.f/
1F	.	.	.
.	.	.	4g/
.	.	2c\	2a/
=50	=50	=50	=50
2G\	0r	2B-\	4d/
.	.	.	4e/
4F\	.	4A/	4f/
4E\	.	4G/	4g/
2D\	.	2F/	4a/
.	.	.	4b-\
2C/	.	2A/	2cc\
=51	=51	=51	=51
1BB-	0r	2B-\	2dd\
.	.	2d\	1b-
1F	.	1c	.
.	.	.	2a/
=52	=52	=52	=52
2BB-/	0r	1B-	1b-
1E-i	.	.	.
.	.	2G/	1r
2D\	.	[2B-\	.
=53	=53	=53	=53
2BB-/	0r	2B-\]	0r
1D	.	2A/	.
.	.	2F/	.
2C/	.	[2A/	.
=54	=54	=54	=54
2AA/	0r	2A/]	0r
1C	.	2G/	.
.	.	2E/	.
2BB-/	.	2F/	.
=55	=55	=55	=55
2GG/	0r	2G/	0r
1BB-	.	4F/	.
.	.	4E/	.
.	.	2D/	.
4AA/	.	[2G/	.
4GG/	.	.	.
=56	=56	=56	=56
1AA	0r	2G/]	1r
.	.	2F#i/	.
1GG	.	2.G/	1b-
.	.	4A/	.
=57	=57	=57	=57
2r	0r	2.B-\	2g/
1G	.	.	1b-
.	.	4c\	.
.	.	2d\	.
2F\	.	[2D/	2a/
=58	=58	=58	=58
2.A\	0r	4D/]	2f/
.	.	4E/	.
.	.	1F	1a
4B-\	.	.	.
2c\	.	.	.
2B-\	.	2G/	2g/
=59	=59	=59	=59
2c\	0r	2A/	2e/
2d\	.	2D/	2f/
2G\	.	2E/	2g/
[2B-\	.	2D/	4f/
.	.	.	4e/
=60	=60	=60	=60
2B-\]	0r	1G	2d/
4A\	.	.	1g
4G\	.	.	.
1A	.	1D	.
.	.	.	2f#i/
=61	=61	=61	=61
2G\	0r	1d	1g
2B-\	.	.	.
2A\	.	2c\	1r
[2G\	.	[2B-\	.
=62	=62	=62	=62
4G\]	0r	4B-\]	0r
4F\	.	4A/	.
4E\	.	2.c\	.
4D\	.	.	.
2C/	.	.	.
.	.	4B-\	.
[2F\	.	4A/	.
.	.	4G/	.
=63	=63	=63	=63
4F\]	0r	2F/	0r
4E\	.	.	.
2D\	.	1B-	.
1C	.	.	.
.	.	2A/	.
=64	=64	=64	=64
1BB-	0r	1B-	1dd
2AA/	.	2c\	2cc\
2GG/	.	[2d\	[2b-\
=65	=65	=65	=65
2r	0r	2d\]	4b-\]
.	.	.	4a/
2.C/	.	2c\	2.cc\
.	.	1e-	.
4BB-/	.	.	4b-\
2C/	.	.	4a/
.	.	.	4g/
=66	=66	=66	=66
2D\	0r	1d	2f/
2BB-/	.	.	2.b-\
1F	.	1c	.
.	.	.	4g/
.	.	.	2a/
=67	=67	=67	=67
2BB-/	0r	2.B-\	2d/
2.E-\	.	.	2.g/
.	.	4A/	.
.	.	2G/	.
4D\	.	.	4f/
[2BB-/	.	2F/	[2d/
=68	=68	=68	=68
4BB-/]	0r	2B-\	4d/]
4C/	.	.	4e/
2D\	.	2.A/	2f/
2C/	.	.	2g/
.	.	4G/	.
2BB-/	.	[2G/	2b-\
=69	=69	=69	=69
2C/	0r	2G/]	2a/
2AA/	.	2F/	2cc\
2GG/	.	2G/	2b-\
2D\	.	2F/	[2a/
=70	=70	=70	=70
2E-i\	0r	2B-\	4a/]
.	.	.	4g/
2C/	.	2c\	1g
1D	.	1A	.
.	.	.	2f#i/
=71	=71	=71	=71
1GG	0r	2G/	1g
.	.	2E/	.
2r	.	2F/	[1d
2GG/	.	[2G/	.
=72	=72	=72	=72
2BB-/	0r	4G/]	2d/]
.	.	4F/	.
2C/	.	4E/	2c/
.	.	4D/	.
1E-i	.	1G	2B-/
.	.	.	4A/
.	.	.	4G/
=73	=73	=73	=73
*	*	*^	*
0Dl	0r	0Fl\ 0Al\	0dl/	0Al
*	*	*v	*v	*
!!LO:LB:i:g=z
=74||	=74||	=74||	=74||
*>C	*>C	*>C	*>C
*clefF4	*clefGv2	*clefGv2	*clefG2
*k[b-]	*k[b-]	*k[b-]	*k[b-]
*M3/1	*M3/1	*M3/1	*M3/1
*met(O)	*met(C.)	*met(O)	*met(O)
!!primary-mensuration: met(O)
!!section: Kyrie II
!!!OMD: Kyrie II
0A	0.r	0.r	0.r
1B-	.	.	.
=75	=75	=75	=75
2A\	0.r	0A	0.r
2.F\	.	.	.
4E\	.	.	.
2F\	.	.	.
2G\	.	1B-	.
2E\	.	.	.
=76	=76	=76	=76
2F\	0.r	2A/	0a
2.D\	.	2.F/	.
4C/	.	4E/	.
2AA/	.	2F/	.
2GG/	.	2G/	1b-
2G\	.	2E/	.
=77	=77	=77	=77
2D\	0.r	2.F/	1.a
1F	.	.	.
.	.	4G/	.
.	.	4A/	.
.	.	4B-\	.
2E\	.	1c	2g/
1D	.	.	1f
.	.	2Bni\	.
=78	=78	=78	=78
2C/	0.G	2c\	2e/
2BB-/	.	2d\	2d/
2C/	.	2G/	2e/
4BB-/	.	2.B-\	2.g/
4AA/	.	.	.
1GG	.	.	.
.	.	4c\	4f/
.	.	4d\	2g/
.	.	4e\	.
=79	=79	=79	=79
1D	0.F	2.f\	2.a/
.	.	4e\	4b-\
1r	.	2c\	2.cc\
.	.	2.f\	.
.	.	.	4b-\
1D	.	.	4a/
.	.	4e\	4g/
.	.	4d\	2a/
.	.	4c\	.
=80	=80	=80	=80
2.E\	0G	2B-\	2g/
.	.	2G/	2.b-\
4F\	.	.	.
2G\	.	2B-\	.
.	.	.	4a/
2E\	.	2c\	1g
1D	1A	[1d	.
.	.	.	2f#i/
=81	=81	=81	=81
1GG	1B-	2d\]	2.g/
.	.	1.G	.
.	.	.	4f/
1C	1c	.	4e/
.	.	.	4d/
.	.	.	2e/
1D	1A	2F/	2d/
.	.	2A/	[2f/
=82	=82	=82	=82
1BB-	1d	2.B-\	4f/]
.	.	.	4e/
.	.	.	1d
.	.	4A/	.
1.C	1.e	2G/	.
.	.	2A/	2c/
.	.	2.G/	2c/
2GG/	2d\	.	4B-/
.	.	4F/	4c/
=83	=83	=83	=83
1GG	0d	4G/	2d/
.	.	4D/	.
.	.	2.G/	2.B-/
1BB-	.	.	.
.	.	4F/	4A/
.	.	4E/	2G/
.	.	4D/	.
1AA	1c#i	1E	1A
=84	=84	=84	=84
2r	0.d	2D/	0.r
2.BB-/	.	2.F/	.
4C/	.	4E/	.
2D\	.	2F/	.
2E-i\	.	2G/	.
[2D\	.	4B-\	.
.	.	[4A/	.
=85	=85	=85	=85
*	*M3/1	*	*
*	*met(O)	*	*
4D\]	0.r	4A/]	1r
4C/	.	4G/	.
2BB-/	.	1G	.
1AA	.	.	1r
.	.	2F#i/	.
2GG/	.	2.G/	[1dd
[2G\	.	.	.
.	.	4A/	.
=86	=86	=86	=86
2G\]	0.r	2B-\	2dd\]
2A\	.	2c\	2cc\
1G	.	2e-i\	1b-
.	.	2.d\	.
1D	.	.	1a
.	.	4eni\	.
.	.	2f\	.
=87	=87	=87	=87
0.r	1G	4g\	1g
.	.	4f\	.
.	.	4e\	.
.	.	4d\	.
.	1F	2.f\	2a/
.	.	.	1cc
.	.	4e\	.
.	1G	4d\	.
.	.	4c\	.
.	.	2d\	2b-\
=88	=88	=88	=88
2F\	2A/	2c\	2cc\
2G\	2B-\	2B-\	2g/
1A-	2c\	2A-i/	2r
.	2A-i/	2F/	2f/
1G	2d\	1B-	2g/
.	[2e\	.	[2g/
=89	=89	=89	=89
2C/	4e\]	2c\	4g/]
.	4d\	.	4a/
2D\	1d	2B-\	2.b-\
1E-i	.	1G	.
.	.	.	4a/
.	2c\	.	1g
1D	1d	1A	.
.	.	.	2f#i/
=90	=90	=90	=90
0.GGl	0.dl	0.Gl	0.gl
==	==	==	==
*-	*-	*-	*-
!!!RDF**kern: l=long note in original notation
!!!RDF**kern: i=editorial accidental
!!!RDF**kern: V=start of tuplet marker
!!!RDF**kern: Z=end of tuplet marker
!!!ENC:	Chris Gage 10-16-2014
!!!END:	2014/10/25/
!!!EED:	Jesse Rodin
!!!EEV:	2015/03/09/
!!!ONB:	Translated from MusicXML and edited on 2015/03/09/ by Craig Sapp
!!muse2ps: T^@{OPR}^u^@{ONM}{. }@{OTL}^C^@{COM}^i2I150v85,85,85,150Q16
